X:209
T:Shepherd's Daughter - Parsons
%%VWML:SBG-1-2-17-0
F:http://www.vwml.org/record/SBG/1/2/17
Z:Original Sibelius transcriptions by M. & S. Graebe
M:6/8
I:linebreak $
K:Bb
V:1 treble nm="P1"
V:1
 D | G2 G A2 A | B2 A G2 B/c/ | d2 d c2 B | d4 z Bc | d2 d c2 B | c2 d G2 e |$ d2 c B2 A | %8
 G4 z z d | G2 G A2 G | B2 A G2 d | G2 G B2 A | G4 z Bc |$ e2 d/c/ B2 B | A2 A G2 d | G2 G B2 A | %16
 (G3 G2) z |"^or" B | d2 B AG B/c/ | B4 z x | %20
T:Shepherd's Daughter - Olver
F:http://www.vwml.org/record/SBG/1/2/17
Z:Original Sibelius transcriptions by M. & S. Graebe
M:4/4
I:linebreak $
K:G
V:1 treble nm="P1"
V:1
 B, | E E F E | E =D B, B, | E A c B | A3 F | G A B B |$ A F A A | G E F =D | B,3 B, | E F G F | %10
 E3 F |$ G A B B | A F A A | G E F =D | B, z z B, | E F G F | !fermata!E4 | %17
T:Shepherd's Daughter - Kidson
F:http://www.vwml.org/record/SBG/1/2/17
Z:Original Sibelius transcriptions by M. & S. Graebe
M:4/4
I:linebreak $
K:Ab
V:1 treble nm="P1"
V:1
 F/G/ | A A G G | F F C C | A A B B | c3 G | A B c c |$ c/B/ A B2 | (c3/2 B/) A G | F C/=D/ E2 | %9
w: |||||||||
 F G A2 | C F/F/ =E/F/G/E/ | F3 x | %12
w: Fol- de- lay,|Fol- lol- di- did- dle- lol- di-|day.|


